src/client/app/public/PagesHolder/index/About/img/phone.svg

<svg width="447" height="308" viewBox="0 0 447 308" fill="none" xmlns="http://www.w3.org/2000/svg">
<path d="M45.0319 140.927L270.747 300.235C277.201 304.79 285.731 305.12 292.517 301.076L395.773 239.547C408.474 231.979 408.856 213.722 396.483 205.629L139.421 37.4895C133.055 33.3251 124.877 33.1335 118.322 36.9952L25.6733 91.578C13.4233 98.795 12.4039 116.13 23.7236 124.733L45.0319 140.927Z" fill="#D9DBE9" stroke="black" stroke-linecap="round" stroke-linejoin="round"/>
<path d="M403.093 231.696L404.489 228.904C405.178 227.526 405.701 226.07 406.048 224.569L406.276 223.579C406.754 221.511 406.922 219.383 406.776 217.266L406.184 208.687L404.477 214.149L404.453 214.225L404.407 214.29L399.555 221.083L403.093 231.696Z" fill="#D9DBE9" stroke="black"/>
<path d="M395 225L400.5 220.5L403.5 230L402.5 232L395 225Z" fill="#D9DBE9"/>
<path d="M19.3985 120.269L18.2522 118.168C17.4026 116.61 16.7695 114.944 16.3705 113.215L16.1941 112.45C15.7359 110.465 15.5623 108.424 15.6786 106.389L16.2972 95.5631L18.0125 103.11L18.0347 103.208L18.0932 103.29L22.9428 110.08L19.3985 120.269Z" fill="#D9DBE9" stroke="black"/>
<path d="M27.5 113.999L22 109.499L18 116.499L20 120.499L27.5 113.999Z" fill="#D9DBE9"/>
<path d="M45.7523 127.238L271.467 286.546C277.921 291.101 286.452 291.43 293.238 287.387L396.493 225.858C409.194 218.289 409.576 200.032 397.203 191.939L140.142 23.7999C133.775 19.6355 125.597 19.4439 119.042 23.3056L26.3938 77.8884C14.1437 85.1054 13.1243 102.44 24.4441 111.044L45.7523 127.238Z" fill="#F7F7FC" stroke="black" stroke-linecap="round" stroke-linejoin="round"/>
<rect x="67.0448" y="61.4885" width="34.1434" height="3.88204" rx="1.94102" transform="rotate(-30 67.0448 61.4885)" fill="#B1B3C0" stroke="black"/>
<path d="M278.617 131.313C279.502 132.197 280.905 132.274 281.901 131.548C323.774 100.993 365.532 108.454 398.484 127.681C399.17 128.082 399.33 128.798 399.097 129.445C398.861 130.099 398.246 130.603 397.431 130.537C367.269 128.095 340.939 139.116 315.184 164.324C314.196 165.292 314.189 166.885 315.167 167.862L333.902 186.597C334.847 187.542 334.178 189.158 332.841 189.158L259.208 189.158C258.38 189.158 257.708 188.487 257.708 187.658L257.708 114.025C257.708 112.689 259.324 112.02 260.269 112.965L278.617 131.313Z" fill="url(#paint0_linear_1_711)" stroke="black"/>
<path d="M112.758 125.317C113.082 126.525 112.449 127.776 111.326 128.28C77.4754 143.454 66.5025 171.708 66.0294 199.17C66.0158 199.958 66.5447 200.46 67.2305 200.591C67.9249 200.724 68.6901 200.452 69.0652 199.721C78.8113 180.738 95.2654 168.565 119.875 161.587C121.209 161.209 122.588 162.004 122.946 163.338L127.586 180.656C127.932 181.947 129.666 182.175 130.334 181.018L156.809 135.162C157.223 134.445 156.977 133.527 156.26 133.113L110.404 106.639C109.247 105.97 107.859 107.035 108.205 108.326L112.758 125.317Z" fill="url(#paint1_linear_1_711)" stroke="black"/>
<defs>
<linearGradient id="paint0_linear_1_711" x1="127.5" y1="227" x2="208.253" y2="42.2076" gradientUnits="userSpaceOnUse">
<stop stop-color="#53EAFF"/>
<stop offset="1" stop-color="#B9F348"/>
</linearGradient>
<linearGradient id="paint1_linear_1_711" x1="246.5" y1="69.9998" x2="98.3196" y2="41.7433" gradientUnits="userSpaceOnUse">
<stop stop-color="#53EAFF"/>
<stop offset="1" stop-color="#B9F348"/>
</linearGradient>
</defs>
</svg>

<svg width="447" height="308" fill="none" xmlns="http://www.w3.org/2000/svg"><path d="m45.032 140.927 225.715 159.308a19.999 19.999 0 0 0 21.77.841l103.256-61.529c12.701-7.568 13.083-25.825.71-33.918L139.421 37.489a19.999 19.999 0 0 0-21.099-.494L25.673 91.578c-12.25 7.217-13.27 24.552-1.95 33.155l21.309 16.194Z" fill="#D9DBE9" stroke="#000" stroke-linecap="round" stroke-linejoin="round"/><path d="m403.093 231.696 1.396-2.792a19.532 19.532 0 0 0 1.559-4.335l.228-.99c.478-2.068.646-4.196.5-6.313l-.592-8.579-1.707 5.462-.024.076-.046.065-4.852 6.793 3.538 10.613Z" fill="#D9DBE9" stroke="#000"/><path d="m395 225 5.5-4.5 3 9.5-1 2-7.5-7Z" fill="#D9DBE9"/><path d="m19.398 120.269-1.146-2.101a19.506 19.506 0 0 1-1.881-4.953l-.177-.765a21.496 21.496 0 0 1-.515-6.061l.618-10.826 1.715 7.547.023.098.058.082 4.85 6.79-3.545 10.189Z" fill="#D9DBE9" stroke="#000"/><path d="m27.5 113.999-5.5-4.5-4 7 2 4 7.5-6.5Z" fill="#D9DBE9"/><path d="m45.752 127.238 225.715 159.308a20.002 20.002 0 0 0 21.771.841l103.255-61.529c12.701-7.569 13.083-25.826.71-33.919L140.142 23.799a20 20 0 0 0-21.1-.493L26.394 77.888c-12.25 7.217-13.27 24.552-1.95 33.156l21.308 16.194Z" fill="#F7F7FC" stroke="#000" stroke-linecap="round" stroke-linejoin="round"/><rect x="67.045" y="61.489" width="34.143" height="3.882" rx="1.941" transform="rotate(-30 67.045 61.489)" fill="#B1B3C0" stroke="#000"/><path d="M278.617 131.313c.885.884 2.288.961 3.284.235 41.873-30.555 83.631-23.094 116.583-3.867.686.401.846 1.117.613 1.764-.236.654-.851 1.158-1.666 1.092-30.162-2.442-56.492 8.579-82.247 33.787a2.491 2.491 0 0 0-.017 3.538l18.735 18.735c.945.945.276 2.561-1.061 2.561h-73.633a1.5 1.5 0 0 1-1.5-1.5v-73.633c0-1.336 1.616-2.005 2.561-1.06l18.348 18.348Z" fill="url(#a)" stroke="#000"/><path d="M112.758 125.317c.324 1.208-.309 2.459-1.432 2.963-33.85 15.174-44.823 43.428-45.297 70.89-.013.788.516 1.29 1.202 1.421.694.133 1.46-.139 1.834-.87 9.746-18.983 26.2-31.156 50.81-38.134a2.483 2.483 0 0 1 3.071 1.751l4.64 17.318c.346 1.291 2.08 1.519 2.748.362l26.475-45.856a1.5 1.5 0 0 0-.549-2.049l-45.856-26.474c-1.157-.669-2.545.396-2.199 1.687l4.553 16.991Z" fill="url(#b)" stroke="#000"/><defs><linearGradient id="a" x1="127.5" y1="227" x2="208.253" y2="42.208" gradientUnits="userSpaceOnUse"><stop stop-color="#53EAFF"/><stop offset="1" stop-color="#B9F348"/></linearGradient><linearGradient id="b" x1="246.5" y1="70" x2="98.32" y2="41.743" gradientUnits="userSpaceOnUse"><stop stop-color="#53EAFF"/><stop offset="1" stop-color="#B9F348"/></linearGradient></defs></svg>
